X:210
T:I'm Bound Away
M:C
L:1/4
Q:1/4=3D120
K:F
A>A AG|A>c cA|G2 G>F|G>B BG|
A>A AG|A>c cA|A2 A>G|F4 ||
